X:42
T:Portsmouth
R:Reel
M:4/4
K:G
P:A
D2|\
G3A BAGF|E2E2 e4|d2B2 cBAG|A6 D2|G3A BAGF|E2E2 e4|d2B2 cBAB|G6::
P:B
d2|\
g3a bagf|g2d2 B2d2|g2B2 cBAG|A6 D2|G3A BAGF|E2E2 e4|d2B2 cBAB|G6:|
